resources/assets/svg/rss.svg

<?xml version="1.0" encoding="UTF-8"?>
<svg width="20px" height="20px" viewBox="0 0 20 20" version="1.1" xmlns="http://www.w3.org/2000/svg" xmlns:xlink="http://www.w3.org/1999/xlink" xmlns:sketch="http://www.bohemiancoding.com/sketch/ns">
    <!-- Generator: Sketch 3.4.2 (15855) - http://www.bohemiancoding.com/sketch -->
    <title>rss</title>
    <desc>Created with Sketch.</desc>
    <defs></defs>
    <g id="Page-1" stroke="none" stroke-width="1" fill="none" fill-rule="evenodd" sketch:type="MSPage">
        <g id="rss" sketch:type="MSArtboardGroup" fill="#4D4D4D">
            <path d="M1.12408228,0.00165724733 C0.820537328,-0.0141534338 0.554906907,0.0832078005 0.333548238,0.291911536 C0.112189554,0.500615285 9.49206264e-07,0.763387252 9.49206264e-07,1.07012453 L9.49206264e-07,2.49680411 C9.49206264e-07,3.06283747 0.434531703,3.53048971 1.00055133,3.56528052 C9.29811755,4.06490171 15.9351278,10.7018847 16.4347398,18.9994509 C16.4695443,19.5654797 16.9401602,20.0062762 17.5093356,19.9999693 L18.9299187,19.9999693 C19.2366194,19.9999693 19.4994142,19.8878264 19.7081042,19.6664769 C19.9167942,19.4482876 20.0141646,19.1764738 19.9983402,18.8697365 C19.4323206,8.70648248 11.2904829,0.567686052 1.12408228,0.00165724733 L1.12408228,0.00165724733 Z M1.15495359,6.2827604 C0.84505143,6.25749166 0.567392635,6.34884328 0.339722498,6.56068446 C0.112052348,6.77255307 9.49206265e-07,7.03817892 9.49206265e-07,7.35122766 L9.49206265e-07,8.77794841 C9.49206265e-07,9.33133597 0.416283332,9.78963077 0.969680027,9.84021397 C5.83312239,10.298742 9.70744818,14.1668707 10.1659442,19.0303085 C10.2165731,19.5836823 10.6748862,20.0061618 11.2282372,20.0061618 L12.6549488,20.0061618 C12.9680067,20.0061618 13.2336371,19.887959 13.4454829,19.6602843 C13.6541729,19.4325959 13.7487077,19.1549325 13.7234161,18.8450486 C13.1668636,12.1633596 7.83980289,6.83930369 1.15495359,6.2827604 L1.15495359,6.2827604 Z M2.92751526,14.1388212 C1.30916751,14.1409349 -0.0012823849,15.4541383 9.49206265e-07,17.072487 C-0.00128743769,18.6908391 1.30916394,20.0040482 2.92751526,20.0061618 C3.70576623,20.0067846 4.45232123,19.6979023 5.00262924,19.1475969 C5.55293724,18.5972915 5.861823,17.8507379 5.86120384,17.072487 C5.86182057,16.2942376 5.55293374,15.5476864 5.002626,14.9973829 C4.45231826,14.4470795 3.70576464,14.1381984 2.92751526,14.1388212 L2.92751526,14.1388212 Z" id="Shape" sketch:type="MSShapeGroup"></path>
        </g>
    </g>
</svg>

<svg width="20" height="20" viewBox="0 0 20 20" xmlns="http://www.w3.org/2000/svg"><title>rss</title><path d="M1.124.002c-.303-.016-.57.08-.79.29C.112.502 0 .762 0 1.07v1.427c0 .566.435 1.033 1 1.068C9.3 4.065 15.936 10.702 16.436 19c.035.565.505 1.006 1.074 1h1.42c.307 0 .57-.112.778-.334.21-.218.306-.49.29-.796C19.432 8.706 11.29.568 1.124.002zm.03 6.28c-.31-.025-.587.067-.814.28-.228.21-.34.476-.34.79v1.426C0 9.33.416 9.79.97 9.84c4.863.46 8.737 4.327 9.196 9.19.05.554.51.976 1.062.976h1.427c.313 0 .58-.118.79-.346.21-.227.304-.505.278-.815C13.167 12.163 7.84 6.84 1.155 6.283zM2.93 14.14c-1.62 0-2.93 1.314-2.928 2.932 0 1.62 1.31 2.932 2.928 2.934.778 0 1.524-.308 2.075-.858.55-.55.86-1.297.858-2.076.002-.778-.307-1.524-.857-2.075-.55-.55-1.297-.86-2.075-.858z" fill="#4D4D4D" fill-rule="evenodd"/></svg>
